!!!SOCIAL_FUNCTION:	lightning songs
!!!PDT:	1932
!!!OTL: No_51_White_Cloud_Demonstrates_His_Power_(b).krn
!!!REG: Southwest
!!!LANG: Non-Tone
!!!LING_GROUP: Yuman-Cochimi
**kern
*staff1
=1-
*clefF4
*k[b-e-a-]
*M3/4
8F\
8r
8F\
8r
8F\L
8E-\J
=2||
*M2/4
8.E-\L
16E-\Jk
12E-/L
12C/
12C/J
=3
4F\
8.F\L
16E-\Jk
=4
8.E-\L
16E-\Jk
12E-/L
12C/
12C/J
=5
8F\L
8F\J
8F\
8r
=6
8E-\L
8E-\J
8E-\
8r
=7
8F\L
8F\J
8F\
8r
=8
8.F\L
16F\Jk
12F\L
12E-\
12G\J
=9
8F\L
8F\J
8F\
8r
=10
8.E-\L
16F\Jk
12F\L
12E-\
12G\J
=11
8F\L
8F\J
8F\
8r
=12
8E-\L
8E-\J
8C/
8r
=13
8E-\L
8E-\J
8C/
8r
=14
8.E-\L
16F\Jk
12F\L
12E-\
12G\J
=15
8F\L
8F\J
8F\
8r
=16!|:
8.E-\L
16F\Jk
12F\L
12E-\
12G\J
=17
8F\L
8F\J
8F\
8r
=18
8E-\L
8E-\J
8C/
8r
=19
8E-\L
8E-\J
8C/
8r
=20
8.E-\L
16F\Jk
12F\L
12E-\
12G\J
=21
8F\L
8F\J
8F\
8r
=22
8.E-\L
16F\Jk
12F\L
12E-\
12G\J
=23
4F\
8F\
16r
16F\
=24
4E-\
8C/
8r
=25
4E-\
8C/
8r
=26
4F\
8F\
8r
=27
8.E-\L
16F\Jk
12F\L
12E-\
12G\J
=28
8F\L
8F\J
8F\
8r
=29:|!|:
8.G\L
16B-\Jk
12B-\L
12G\
12B-\J
=30
4G\
8.G\L
16F\Jk
=31
8.F\L
16G\Jk
8.G\L
16G\Jk
=32
8F\L
8F\J
8F\
8r
=33
8.G\L
16B-\Jk
12B-\L
12G\
12B-\J
=34
4G\
8.G\L
16F\Jk
=35
4F\
12G\L
12G\
12G\J
=36
8F\L
8F\J
8F\
8r
=37
8E-\L
8E-\J
8C/
8r
=38
8E-\L
8E-\J
8C/
8r
=39
8.E-\L
16F\Jk
12F\L
12E-\
12G\J
=40
8F\L
8F\J
8F\
8r
=41
8.E-\L
16F\Jk
12F\L
12E-\
12G\J
=42
8F\L
8F\J
8F\
8r
=43
8E-\L
8E-\J
8C/
8r
=44
8E-\L
8E-\J
8C/
8r
=45
8.E-\L
16F\Jk
12F\L
12E-\
12G\J
=46
8F\L
8F\J
8F\
8r
=47
8F\L
8F\J
8E-\
8r
=48
!!pagebreak:default
8F\L
8F\J
8E-\
8r
==:|!
*-
